X:2
T:Erlenbacher Schottisch  GC 5-
%%MIDI program 21
R:shottishe
M:2/4
L:1/16
K:G %%MIDI gchordon
DD |: "G"D2B2 G2d2 | B2g2 z2cB | "D7"A2e2 z2BA | "G"G2d2 D2DD | D2B2 G2d2 | B2g2 z2dd | "D7"^cdfe d=cBA |1 
"G"G2G2 G2DD :|2 "G"G2G2 G2z2 |: "Bm"d4e4 | "F#7"f4e4 | "G"d4"G0"^c4 | "G"d4z4 | B2DG B2DG | BDGB e2d2 | "D7"cDFc e2d2 | 
"G"BDGB e2d2 | B2DG B2DG | BDGB e2d2 | "D7"cBAG FGAF | "G"G2G2 G2z2 :: [K:C] [L:1/8] "C"G!>!c2 G/2A/2 | 
G!>!e2G/2B/2 | "G7"f/2f/2fB2 | "C"e/2e/2ec2 | G!>!c2G/2A/2 | G!>!e2G/2B/2 | "G7"fe AB | "C"cc c"_Fine"z :: [K:G] "G"DE/2F/2 GG | 
B>B A/2G/2F/2E/2 | "D7"Dc/2c/2 F>D | "G"DB/2B/2 G>D | DE/2F/2 GA | B>B A/2G/2F/2E/2 | "D7"Dc BA | "G".G2"_> Teil C"!>!G2 :| 
W:Parts: ABCD-C
% st09066

